!!!OTL@@DE: Wenn der Schnee von der Alma weggageht
!!!ONB: Urspr&uuml;glich Steyrer Jodler vom Musikmstr. Hisel in Gratz
!!!ODT: ~1820
!!!OMD: Heiter
!!!ONB: In: Steyersche Alpenges&auml;nge von Carl Fischer
!!!LDT: ~1829
!!!OCL: Erk, Ludwig
!!!GCO: Deutscher Liederschatz, Band 1
**kern	**kern	**kern
*staff3	*staff2	*staff1
*Ipiano	*Ipiano	*Ivox
*clefF4	*clefG2	*clefG2
*k[f#c#g#]	*k[f#c#g#]	*k[f#c#g#]
*A:	*A:	*A:
*M3/4	*M3/4	*M3/4
*MM112	*MM112	*MM112
4r	4r	8.e/
.	.	16f#/
=1	=1	=1
4AA/	4r	4e/
4r	4E/ 4A/ 4c#/	8a/
.	.	8a/
4r	4E/ 4A/ 4c#/	8a/
.	.	8a/
=2	=2	=2
4EE/	4r	8.dd\
.	.	16dd\
4r	4E/ 4B/ 4d/	4g#/
4r	4E/ 4G#/ 4B/ 4d/	8e/
.	.	8f#/
=3	=3	=3
4EE/	4r	8.e/
.	.	16g#/
4r	4E/ 4B/ 4d/	8g#/
.	.	8g#/
4r	4E/ 4B/ 4d/	8f#/
.	.	8g#/
=4	=4	=4
4AA/	4r	8.cc#\
.	.	16cc#\
4r	4E/ 4A/ 4c#/	4a/
4r	4E/ 4A/ 4c#/	(12e/L
.	.	12f#/J)
.	.	12g#/
=5	=5	=5
4CC#/ 4C#/	4r	8.a/
.	.	16b\
4r	4A/ 4e/ 4a/	8.cc#\
.	.	16b\
4r	4A/ 4e/	8.a/
.	.	16g#/
=6	=6	=6
4DD/ 4D/	4r	8.dd\
.	.	16cc#\
4r	4F#/ 4d/ 4f#/	(8b\
.	.	8a/)
4r	4F#/ 4B/ 4d/	8g#/
.	.	8f#/
=7	=7	=7
4EE/	4r	8.e/
.	.	16ee\
4r	4E/ 4A/ 4c#/	8ee\
.	.	8ee\
4EE\	4E/ 4G#/ 4B/ 4d/	8dd\
.	.	8g#/
=8	=8	=8
4AA\	4E/ 4A/ 4c#/	4a/
4AAA/	4r	4r
4r	(12e/L	12e/L
.	12f#/	12f#/J
.	12g#/J)	12g#/
=9	=9	=9
4AA/	4a/	4a/
4E\	(8A/ 8c#/L	(8c#/L
.	8c#/ 8e/	8e/
4E\ 4A\ 4c#\	8e/ 8a/	8a/
.	8a/) 8cc#/J	8cc#/J)
=10	=10	=10
4EE/	8.b\ (8.dd\L	8.dd\L
.	16a\ 16cc#\Jk)	16cc#\Jk
4E\ 4G#\ 4d\	(4.g#/ 4.b/	(4.b\
4E\ 4G#\ 4d\	.	.
.	8f#/) 8a/	8a/)
=11	=11	=11
4EE/	(8e/ 8g#/L	(8g#/L
.	8d/ 8f#/	8f#/
4E\ 4G#\	8c#/ 8e/	8e/
.	8B/ 8d/	8B/
4E\ 4G#\	8d/ 8f#/	8f#/
.	8c#/) 8e/J	8e/J)
=12	=12	=12
4AAA/	(8.c#/ 8.e/L	8.e/L
.	16B/) 16d/Jk	16d/Jk
4AA/ 4E/	4A/ 4c#/	4c#/
4r	(12e/L	12e/L
.	12f#/	12f#/J
.	12g#/J)	12g#/
=13	=13	=13
4AA/	4a/	4a/
4E\	(8A/ 8c#/L	(8c#/L
.	8c#/ 8e/	8e/
4E\ 4A\ 4c#\	8e/ 8a/	8a/
.	8a/) 8cc#/J	8cc#/J)
=14	=14	=14
4EE/	8.b\ (8.dd\L	8.dd\L
.	16a\ 16cc#\Jk)	16cc#\Jk
4E\ 4G#\ 4d\	(4.g#/ 4.b/	(4.b\
4E\ 4G#\ 4d\	.	.
.	8f#/) 8a/	8a/)
=15	=15	=15
4EE/	(8e/ 8g#/L	(8g#/L
.	8d/ 8f#/	8f#/
4E\ 4G#\	8c#/ 8e/	8e/
.	8B/ 8d/	8B/
4E\ 4G#\	8d/ 8f#/	8f#/
.	8c#/) 8e/J	8e/J)
=16	=16	=16
4AA/ 4E/	4A/ 4c#/	4A/
4AAA/	4r	4r
4E\ 4G#\ 4d\	(12ee\L	12ee\L
.	12dd\	12dd\J
.	12b\J)	12b\
=17	=17	=17
4AA/	(8cc#/L	8cc#/L
.	8A/J)	8A/J
4E\	(8A/ 8c#/L	(8c#/L
.	8c#/ 8e/	8e/
4E\ 4A\ 4c#\	8e/ 8a/	8a/
.	8a/) 8cc#/J	8cc#/J)
=18	=18	=18
4EE/	8b\ 8dd\L	8dd\
.	16r	16r
.	16a\ 16cc#\k	16cc#\
4E\ 4G#\ 4B\	8b\ 8dd\	8dd\
.	16r	16r
.	16an\ 16cc#\Jk	16cc#\
4E\ 4B\ 4d\	4g#/ 4b/	4b\
=19	=19	=19
4EE/	8b\ 8dd\L	8dd\
.	16r	16r
.	16a#\ 16cc#\k	16cc#\
4E\ 4G#\ 4B\	8b\ 8dd\	8dd\
.	16r	16r
.	16an\ 16cc#\Jk	16cc#\
4E\ 4B\ 4d\	4g#/ 4b/	4b\
=20	=20	=20
4AA/	8a/ 8cc#/L	8cc#\
.	16r	16r
.	16g#/ 16b/k	16b\
4E\ 4A\ 4c#\	8a/ 8cc#/	8cc#\
.	16r	16r
.	16e/ 16b/Jk	16b\
4E\ 4A\	4c#/ 4a/	4a/
=21	=21	=21
4AA/	(4A/	(4A/
4E\ 4A\	8c#/L	8c#/L
.	8e/J	8e/J)
4E\ 4Gn\ 4A\ 4c#\	12a\L	(12a\L
.	12cc#\	12cc#\
.	12ee\J)	12ee\J)
=22	=22	=22
4D\ 4F#\ 4A\ 4d\	8.ff#\L	8.ff#\
.	16ee\k	16ee\
4r	8.dd\	8.dd\
.	16cc#\k	16cc#\
4D\ 4F#\ 4d\	8.b\	8.b\
.	16a\Jk	16a/
=23	=23	=23
4EE/	(8g#/L	8g#/L
.	8f#/	8f#/
4D\ 4E\ 4G#\	8e/	8e/
.	8B/J	8B/J
4D\ 4E\ 4G#\	8.f#/L	(8.f#/L
.	16e/Jk)	16e/Jk)
=24	=24	=24
4AA/ 4C#/ 4E/	4A/	4A/
8AAA/	4r	4r
8r	.	.
==	==	==
*-	*-	*-
!!!ENC: Craig Stuart Sapp
!!!END: 2004/05/27/
!!!EFL: 115/651
